lib/functional/brands/microsoft-powerpoint-logo.svg

<svg xmlns="http://www.w3.org/2000/svg" fill="none" stroke="currentColor" aria-hidden="true" viewBox="0 0 32 32"><g id="Icon-MicrosoftPowerpointLogo"><g clip-path="url(#clip0_11_3757)"><g id="size=md (32px)"><path id="Vector" stroke-linecap="round" stroke-linejoin="round" stroke-width="2" d="M17 23V28"/><path id="Vector_2" stroke-linecap="round" stroke-linejoin="round" stroke-width="2" d="M17 4V9"/><path id="Vector_3" stroke-linecap="round" stroke-linejoin="round" stroke-width="2" d="M19 16H29"/><path id="Vector_4" stroke-linecap="round" stroke-linejoin="round" stroke-width="2" d="M18 9H5C4.44772 9 4 9.44772 4 10V22C4 22.5523 4.44772 23 5 23H18C18.5523 23 19 22.5523 19 22V10C19 9.44772 18.5523 9 18 9Z"/><path id="Vector_5" stroke-linecap="round" stroke-linejoin="round" stroke-width="2" d="M9.75 17H11.75C12.2804 17 12.7891 16.7893 13.1642 16.4142C13.5393 16.0391 13.75 15.5304 13.75 15C13.75 14.4696 13.5393 13.9609 13.1642 13.5858C12.7891 13.2107 12.2804 13 11.75 13H9.75V19"/><path id="Vector_6" stroke-linecap="round" stroke-linejoin="round" stroke-width="2" d="M7.25 9C8.73154 6.93711 10.8294 5.39747 13.2416 4.60269C15.6538 3.80791 18.256 3.79898 20.6736 4.57718C23.0913 5.35538 25.1996 6.88058 26.6953 8.93325C28.191 10.9859 28.9968 13.4602 28.9968 16C28.9968 18.5398 28.191 21.0141 26.6953 23.0667C25.1996 25.1194 23.0913 26.6446 20.6736 27.4228C18.256 28.201 15.6538 28.1921 13.2416 27.3973C10.8294 26.6025 8.73154 25.0629 7.25 23"/></g></g></g><defs><clipPath id="clip0_11_3757"><rect width="32" height="32" fill="white" rx="5"/></clipPath></defs></svg>

<svg xmlns="http://www.w3.org/2000/svg" fill="none" stroke="currentColor" aria-hidden="true" viewBox="0 0 32 32"><g stroke="#101828" stroke-linecap="round" stroke-linejoin="round" stroke-width="2" clip-path="url(#a)"><path d="M17 23v5m0-24v5m2 7h10M18 9H5a1 1 0 0 0-1 1v12a1 1 0 0 0 1 1h13a1 1 0 0 0 1-1V10a1 1 0 0 0-1-1Z"/><path d="M9.75 17h2a2 2 0 0 0 0-4h-2v6"/><path d="M7.25 9a12 12 0 1 1 0 14"/></g><defs><clipPath id="a"><rect width="32" height="32" fill="#fff" rx="5"/></clipPath></defs></svg>
